icon/hi/backspace.svg

<svg viewBox="0 0 20 20" fill="none" xmlns="http://www.w3.org/2000/svg" height="1em" width="1em">
  <path fill-rule="evenodd" clip-rule="evenodd" d="M6.70711 4.87868C7.26972 4.31607 8.03278 4 8.82843 4H15C16.6569 4 18 5.34315 18 7V13C18 14.6569 16.6569 16 15 16H8.82843C8.03278 16 7.26972 15.6839 6.70711 15.1213L2.29289 10.7071C2.10536 10.5196 2 10.2652 2 10C2 9.73478 2.10536 9.48043 2.29289 9.29289L6.70711 4.87868ZM10.7071 7.29289C10.3166 6.90237 9.68342 6.90237 9.29289 7.29289C8.90237 7.68342 8.90237 8.31658 9.29289 8.70711L10.5858 10L9.29289 11.2929C8.90237 11.6834 8.90237 12.3166 9.29289 12.7071C9.68342 13.0976 10.3166 13.0976 10.7071 12.7071L12 11.4142L13.2929 12.7071C13.6834 13.0976 14.3166 13.0976 14.7071 12.7071C15.0976 12.3166 15.0976 11.6834 14.7071 11.2929L13.4142 10L14.7071 8.70711C15.0976 8.31658 15.0976 7.68342 14.7071 7.29289C14.3166 6.90237 13.6834 6.90237 13.2929 7.29289L12 8.58579L10.7071 7.29289Z" fill="#374151"/>
</svg>

<svg width="20" height="20" fill="none" xmlns="http://www.w3.org/2000/svg"><path fill-rule="evenodd" clip-rule="evenodd" d="M6.707 4.879A3 3 0 0 1 8.828 4H15a3 3 0 0 1 3 3v6a3 3 0 0 1-3 3H8.828a3 3 0 0 1-2.12-.879l-4.415-4.414a1 1 0 0 1 0-1.414l4.414-4.414Zm4 2.414a1 1 0 0 0-1.414 1.414L10.586 10l-1.293 1.293a1 1 0 1 0 1.414 1.414L12 11.414l1.293 1.293a1 1 0 0 0 1.414-1.414L13.414 10l1.293-1.293a1 1 0 0 0-1.414-1.414L12 8.586l-1.293-1.293Z" fill="#374151"/></svg>
